X:1
T:The Christian’s Good  Night
T:Ira David Sankey, 1884
T:The Christian’s Good  Night
T:Public Domain
T:Public Domain
C:Ira David Sankey, 1884
Z:Public Domain
%%score 1 2
L:1/8
M:4/4
K:Ab
V:1 treble 
V:2 bass 
V:1
 [CE]2 | [Ec]2 [Ec]2 [EA]2 [EA]2 | [FA][FA][EG][DF] [CE]3 [CE] [CA]2 [EG]2 [EA]2 [EB]2 | %3
w: 1.~Sleep|on, be- lov- èd,|sleep, and take thy rest; Lay down thy head up-|
w: 2.~Calm|is thy slum- ber|as an in- fant’s sleep; But thou shalt wake no|
w: 3.~Un-|til the sha- dows|from this earth are cast, Un- til He ga- thers|
w: 4.~Un-|til the Eas- ter|glo- ry lights the skies, Un- til the dead in|
w: 5.~Un-|til, made beau- ti-|ful by love di- vine, Thou, in the like- ness|
w: 6.~On-|ly “Good night,” be-|lov- èd—not “fare- well!” A lit- tle while, and all|
w: 7.~Un-|til we meet a-|gain be- fore His throne, Clothed in the spot- less|
 [Ec][Ec][EB][=DA] [EB]3 [E_d] | [Ec]2 [DB]2 [CA]2 [_GA]2 | [FA][FA][EG][DF] [CE]3 [CE] | %6
w: on the Sav- ior’s breast; We|love thee well, but|Je- sus loves thee best— Good|
w: more to toil and weep; Thine|is a per- fect|rest, se- cure and deep— Good|
w: in His sheaves at last; Un-|til the twi- light|gloom be o- ver past— Good|
w: Je- sus shall a- rise, And|He shall come, but|not in low- ly guise— Good|
w: of thy Lord shalt shine, And|He shall bring that|gold- en crown of thine— Good|
w: His saints shall dwell In hal-|lowed un- i- son|in- di- vi- si- ble— Good|
w: robe He gives His own, Un-|til we know ev-|en as we are known— Good|
 [DF]3 [=DF] [_DG]3 [DB] | [CA]6 |] %8
w: night! Good night! Good|night!|
w: night! Good night! Good|night!|
w: night! Good night! Good|night!|
w: night! Good night! Good|night!|
w: night! Good night! Good|night!|
w: night! Good night! Good|night!|
w: night! Good night! Good|night!|
V:2
 [A,,A,]2 | [A,,A,]2 [A,,A,]2 [C,A,]2 [C,A,]2 | %2
 [D,A,][D,A,][D,A,][F,A,] A,3 [A,,A,] [A,,A,]2 [D,B,]2 [C,A,]2 [E,G,]2 | %3
 A,A,[G,B,][F,B,] [E,G,]3 [G,B,] | A,2 [E,G,]2 [F,A,]2 [C,E]2 | %5
 [D,D][D,D][D,A,][D,A,] [A,,A,]3 [A,,A,] | [D,A,]3 [B,,B,] [E,B,]3 [E,G,] | [A,,A,]6 |] %8

